src/main/resources/icons/AllIcons/runConfigurations/testPassedIgnored.svg

<!-- Copyright 2000-2021 JetBrains s.r.o. Use of this source code is governed by the Apache 2.0 license that can be found in the LICENSE file. -->
<svg width="16" height="16" viewBox="0 0 16 16" fill="none" xmlns="http://www.w3.org/2000/svg">
<path fill-rule="evenodd" clip-rule="evenodd" d="M7.28554 12.5521L6.86976 12.9679L1.92001 8.01817L4.04133 5.89685L6.86976 8.72527L12.5266 3.06842L14.6479 5.18974L12.0521 7.78554C11.8714 7.76209 11.6871 7.75 11.5 7.75C9.15279 7.75 7.25 9.65279 7.25 12C7.25 12.1871 7.26209 12.3714 7.28554 12.5521Z" fill="#62B543" fill-opacity="0.7"/>
<path fill-rule="evenodd" clip-rule="evenodd" d="M11.5 15.25C13.2949 15.25 14.75 13.7949 14.75 12C14.75 10.2051 13.2949 8.75 11.5 8.75C9.70507 8.75 8.25 10.2051 8.25 12C8.25 13.7949 9.70507 15.25 11.5 15.25ZM11.5 14.125C12.6736 14.125 13.625 13.1736 13.625 12C13.625 11.6221 13.5264 11.2672 13.3534 10.9598L10.4598 13.8534C10.7672 14.0264 11.1221 14.125 11.5 14.125ZM9.64659 13.0402L12.5402 10.1466C12.2328 9.97365 11.8779 9.875 11.5 9.875C10.3264 9.875 9.375 10.8264 9.375 12C9.375 12.3779 9.47365 12.7328 9.64659 13.0402Z" fill="#9AA7B0" fill-opacity="0.8"/>
</svg>

<svg width="16" height="16" viewBox="0 0 16 16" fill="none" xmlns="http://www.w3.org/2000/svg"><rect id="frame" width="16" height="16" fill="none"/><path fill-rule="evenodd" clip-rule="evenodd" d="M7.286 12.552l-.416.416-4.95-4.95 2.121-2.121L6.87 8.725l5.657-5.657 2.12 2.122-2.595 2.596a4.25 4.25 0 0 0-4.767 4.767z" fill="#62B543" fill-opacity=".7"/><path fill-rule="evenodd" clip-rule="evenodd" d="M11.5 15.25a3.25 3.25 0 1 0 0-6.5 3.25 3.25 0 0 0 0 6.5zm0-1.125a2.125 2.125 0 0 0 1.853-3.165l-2.893 2.893c.307.173.662.272 1.04.272zM9.647 13.04l2.893-2.893a2.125 2.125 0 0 0-2.894 2.894z" fill="#9AA7B0" fill-opacity=".8"/></svg>
